icon-themes/sifr_svg/cmd/32/connector.svg

<svg viewBox="0 0 32 32" xmlns="http://www.w3.org/2000/svg"><path d="m6.5 2a5.5 5.5 0 0 0 -5.5 5.5 5.5 5.5 0 0 0 5.5 5.5 5.5 5.5 0 0 0 5.289062-4h2.210938v14 3h5.214844a5.5 5.5 0 0 0 5.285156 4 5.5 5.5 0 0 0 5.5-5.5 5.5 5.5 0 0 0 -5.5-5.5 5.5 5.5 0 0 0 -5.289062 4h-2.210938v-17h-5.214844a5.5 5.5 0 0 0 -5.285156-4zm0 3a2.5 2.5 0 0 1 2.5 2.5 2.5 2.5 0 0 1 -2.5 2.5 2.5 2.5 0 0 1 -2.5-2.5 2.5 2.5 0 0 1 2.5-2.5zm18 17a2.5 2.5 0 0 1 2.5 2.5 2.5 2.5 0 0 1 -2.5 2.5 2.5 2.5 0 0 1 -2.5-2.5 2.5 2.5 0 0 1 2.5-2.5z" fill="#555753"/></svg>

<svg xmlns="http://www.w3.org/2000/svg" viewBox="0 0 32 32">
 <path
     style="fill:#555753"
     d="M 6.5 2 A 5.5 5.5 0 0 0 1 7.5 A 5.5 5.5 0 0 0 6.5 13 A 5.5 5.5 0 0 0 11.789062 9 L 14 9 L 14 23 L 14 26 L 19.214844 26 A 5.5 5.5 0 0 0 24.5 30 A 5.5 5.5 0 0 0 30 24.5 A 5.5 5.5 0 0 0 24.5 19 A 5.5 5.5 0 0 0 19.210938 23 L 17 23 L 17 6 L 11.785156 6 A 5.5 5.5 0 0 0 6.5 2 z M 6.5 5 A 2.5 2.5 0 0 1 9 7.5 A 2.5 2.5 0 0 1 6.5 10 A 2.5 2.5 0 0 1 4 7.5 A 2.5 2.5 0 0 1 6.5 5 z M 24.5 22 A 2.5 2.5 0 0 1 27 24.5 A 2.5 2.5 0 0 1 24.5 27 A 2.5 2.5 0 0 1 22 24.5 A 2.5 2.5 0 0 1 24.5 22 z "
     />
 </svg>
